icons/people-24.svg

<svg width="24" height="24" viewBox="0 0 24 24" xmlns="http://www.w3.org/2000/svg">
  <path fill-rule="evenodd" clip-rule="evenodd" d="M3.50012 8C3.50012 4.96245 5.96251 2.5 9.00004 2.5C12.0376 2.5 14.5 4.96245 14.5 8C14.5 9.88949 13.5472 11.5564 12.0958 12.5466C15.4603 13.7791 17.8839 16.963 17.9959 20.7277C18.0082 21.1417 17.6826 21.4873 17.2685 21.4997C16.8545 21.512 16.5089 21.1863 16.4966 20.7723C16.3764 16.7357 13.0659 13.5 8.99995 13.5C4.93397 13.5 1.62347 16.7357 1.50334 20.7723C1.49101 21.1863 1.14539 21.512 0.731357 21.4997C0.317327 21.4873 -0.00832194 21.1417 0.0040006 20.7277C0.116049 16.9629 2.53963 13.7791 5.90419 12.5466C4.45289 11.5564 3.50012 9.88946 3.50012 8ZM9.00004 4C6.79096 4 5.00012 5.79085 5.00012 8C5.00012 10.2092 6.79096 12 9.00004 12C11.2091 12 13 10.2092 13 8C13 5.79085 11.2091 4 9.00004 4Z"/>
  <path d="M17.29 8C17.1424 8 16.9976 8.01051 16.8563 8.03072C16.4462 8.08936 16.0663 7.8045 16.0077 7.39446C15.949 6.98442 16.2339 6.60447 16.6439 6.54583C16.8553 6.51559 17.0711 6.5 17.29 6.5C19.7919 6.5 21.82 8.52816 21.82 11.03C21.82 12.5058 21.1141 13.8159 20.0236 14.6424C22.3551 15.6875 23.98 18.0282 23.98 20.75C23.98 21.1642 23.6442 21.5 23.23 21.5C22.8158 21.5 22.48 21.1642 22.48 20.75C22.48 18.4041 20.923 16.4199 18.7844 15.7782L18.25 15.6178V13.9418L18.6602 13.7334C19.6467 13.2321 20.32 12.209 20.32 11.03C20.32 9.35657 18.9634 8 17.29 8Z"/>
</svg>

<svg xmlns="http://www.w3.org/2000/svg" width="24" height="24" viewBox="0 0 24 24"><path fill-rule="evenodd" d="M3.5 8a5.5 5.5 0 118.596 4.547 9.005 9.005 0 015.9 8.18.75.75 0 01-1.5.045 7.5 7.5 0 00-14.993 0 .75.75 0 01-1.499-.044 9.005 9.005 0 015.9-8.181A5.494 5.494 0 013.5 8zM9 4a4 4 0 100 8 4 4 0 000-8z"/><path d="M17.29 8c-.148 0-.292.01-.434.03a.75.75 0 11-.212-1.484 4.53 4.53 0 013.38 8.097 6.69 6.69 0 013.956 6.107.75.75 0 01-1.5 0 5.193 5.193 0 00-3.696-4.972l-.534-.16v-1.676l.41-.209A3.03 3.03 0 0017.29 8z"/></svg>
